!!!OTL: Die treulose Braut (60), S. 186
!!!id: T0206
**kern
*clefG2
*k[f#c#]
*D:
{8d
8f#
=1
4.a
8b
4a
8a
8g
=2
4.f#
8e
4f#}
=3
{8g
8f#
=4
8e
8e
4dd
4cc#
4b
=5
2a}
4r
=6
{8d
8f#
=7
4a
8a
8dd
4dd
8cc#
8b
=8
8b
8a
8a
8a
8a
8a
8g
8g
=9
4g
4b
4a}
=10
{8a
8g
=11
4f#
8a
8a
4e
8f#
8e
=12
2d}
4r
==
*-
!!!minrhy: 8
!!!meters: 4/4 ]  ZZ[4
!!!cut: Die treulose Braut (60), S. 186
!!!reg: Luxemburg
!!!trd: Singendes Volk, Esch-Alzette 1937 posth.
!!!rhy1: XX  X_.XX_XX  X_.XX_
!!!rhy2: XX  XXX_X_X_  X__0_
!!!key: T0206  08  D 4/4 ]  ZZ[4
!!!mod: HEPTATONIK IONISCH]  AMBITUS[8
!!!kad: 3551
!!!akz: 5533_275_5+16545_321_
!!!fot: 'a__b__c__d__
!!!for: 'a__b__c__cw_
!!!fok: '^a_/__^a_\__
!! PHRAS[AUFTAKTIG]
!!!fkt: Liebeslieder
!!!bem: Hemstal, fff Maria Fisch, 7.9.1913
!! THILL, Mathias:
!! PR[35] 2K[5] 2G[25] 3K[3] 3G[3] 4A[3] 4Ü[0] 5A[0] 6K[0] 6G[0]
!! 7K[0] 7G[0] 8A[0] MEHR[0] SI[38] ABS[40] SR[30] SP[8]
!! ST[8] 2k[3] 2g[10] 3k[8] 3g[8] 4d[0] 4ü[0] 5d[0] 6k[0] 6g[0]
!! 7k[0] 7g[0] 8d[0] mehr[0] si[28] dm[+10] sr[13] sp[15]
!! 1F[10] 2F[68] 3F[22] 4F[0] LF[0] 2P[0] 3P[0] 4P[0] TRI[0] DF[3] AB[41]
!! TF[0] U3K[0] U3[0] U4[0] U4Ü[0] U5[0] U6K[0] U6[0] U7K[0] U7[0]
!! N1[7] N2K[0] N2[10] N3K[0] N3[24] N4[10] N4Ü[0] N5[20] N6K[0] N6[10]
!!!n7k: 0] N7[2] O1[15] O2K[0] O2[2] O3K[0] O3[0] HÖ[0
